icons/op-help1-24.svg

<svg width="24" height="24" viewBox="0 0 24 24" fill="none" xmlns="http://www.w3.org/2000/svg">
<path d="M12.7 13.4216C12.7 13.6725 12.6373 13.7039 12.3863 13.7039H11.3196C11.0686 13.7039 11.0373 13.6725 11.0373 13.4216V11.602C11.0373 11.2569 11.5392 11.1941 12.0725 11.0059C12.5745 10.849 13.0765 10.5353 13.0765 9.75098C13.0765 9.09216 12.6686 8.71569 11.8843 8.71569C10.9745 8.71569 10.2216 9.21765 10.0647 9.21765C10.002 9.21765 9.93922 9.12353 9.90784 9.06078L9.53137 8.08823C9.5 8.02549 9.5 7.96274 9.5 7.93137C9.5 7.5549 11.2255 7.05294 12.198 7.05294C13.9549 7.05294 15.0529 8.18235 15.0529 9.78235C15.0529 11.6333 13.5471 12.1353 12.7 12.4176V13.4216ZM11.9157 17.5C11.2255 17.5 10.6922 16.9353 10.6922 16.2765C10.6922 15.5863 11.2255 15.0216 11.9157 15.0216C12.6059 15.0216 13.1392 15.5863 13.1392 16.2765C13.1392 16.9353 12.5745 17.5 11.9157 17.5ZM12 4C7.57647 4 4 7.57647 4 12C4 16.4235 7.57647 20 12 20C16.4235 20 20 16.4235 20 12C20 7.57647 16.4235 4 12 4ZM12 18.8392C8.23529 18.8392 5.16078 15.7647 5.16078 12C5.16078 8.23529 8.23529 5.16078 12 5.16078C15.7647 5.16078 18.8392 8.23529 18.8392 12C18.8392 15.7647 15.7647 18.8392 12 18.8392Z" fill="black"/>
</svg>

<svg xmlns="http://www.w3.org/2000/svg" width="24" height="24" viewBox="0 0 24 24"><path d="M12.7 13.422c0 .25-.063.282-.314.282H11.32c-.251 0-.283-.032-.283-.282v-1.82c0-.345.502-.408 1.035-.596.503-.157 1.004-.471 1.004-1.255 0-.659-.407-1.035-1.192-1.035-.909 0-1.662.502-1.819.502-.063 0-.126-.094-.157-.157l-.377-.973C9.5 8.025 9.5 7.963 9.5 7.931c0-.376 1.726-.878 2.698-.878 1.757 0 2.855 1.129 2.855 2.729 0 1.851-1.506 2.353-2.353 2.636v1.004Zm-.784 4.078c-.69 0-1.224-.565-1.224-1.224 0-.69.534-1.254 1.224-1.254s1.223.564 1.223 1.254c0 .659-.564 1.224-1.223 1.224ZM12 4c-4.424 0-8 3.576-8 8 0 4.424 3.576 8 8 8 4.424 0 8-3.576 8-8 0-4.424-3.576-8-8-8Zm0 14.839c-3.765 0-6.839-3.074-6.839-6.839 0-3.765 3.074-6.839 6.839-6.839 3.765 0 6.839 3.074 6.839 6.839 0 3.765-3.074 6.839-6.839 6.839Z"/></svg>
